X:2130
T:Galtee Reel, The
O:england
R:reel
S:Louise Costello
D:Fintan Vallely: Traditional Irish Flute Music
M:C|
K:Ador
aged cAAG|EA~A2 EA~A2|aged cAAc|BGGF GABd|
aged cAAG|EA~A2 a2ga|bgag eaaf|1 gedB BA~A2:|2 gedB BAAB||
|:~c3B cded|c2Bc dBGB|~c3B cded|cBAG EAAB|
~c3B cded|cA~A2 a2ga|bgag eaaf|1 gedB cAAB:|2 gedB cA~A2||
"version 2"
|:aged cAAG|EA~A2 G2EG|aged cAAG|EG~G2 EGD2|
aged cAAG|EA~A2 a2ga|bgaf gedB|1 dBAG EA~A2:|2 dBAG EAAB||
|:c2AB cded|cAAG EAAB|c2AB cded|EGGF GED2|
cBAB cded|cA~A2 a2ga|bgaf gedB|1 dBAG EAAB:|2 dBAG EA~A2||


